icons/op-save-24.svg

<svg xmlns="http://www.w3.org/2000/svg" width="24" height="24" viewBox="0 0 24 24"><path d="M12 16h-2v2h2v-2ZM4 4v16h14l2-2V4H4Zm11 15H9v-4h6v4Zm2-7H7V5h10v7Z"/></svg>

<svg width="24" height="24" viewBox="0 0 24 24" fill="none" xmlns="http://www.w3.org/2000/svg">
<path d="M12 16H10V18H12V16ZM4 4V20H18L20 18V4H4ZM15 19H9V15H15V19ZM17 12H7V5H17V12Z" fill="black"/>
</svg>
